!!!COM: Bach, Johann Sebastian
!!!CDT: 1685/3//-1750/7/28/
!!!OTL@@DE: Christ, der du bist der helle Tag
!!!AGN: 4-Part Chorale
!!!SCT: BH 230
!!!SCT: BWV 273
**harm	**root	**kern	**kern	**kern	**kern
!	!	!bass	!tenor	!alto	!soprno
*	*Iorgan	*Iorgan	*Iorgan	*Iorgan	*Iorgan
*	*	*clefF4	*clefF4	*clefG2	*clefG2
*M4/4	*M4/4	*M4/4	*M4/4	*M4/4	*M4/4
*met(c)	*met(c)	*met(c)	*met(c)	*met(c)	*met(c)
*MM60	*MM60	*MM60	*MM60	*MM60	*MM60
*k[f#c#]	*k[f#c#]	*k[f#c#]	*k[f#c#]	*k[f#c#]	*k[f#c#]
*b:	*b:	*b:	*b:	*b:	*b:
i	4GG	4BB	4d	4f#	4b
=1	=1	=1	=1	=1	=1
i	4GG	4B	4d	8f#	4b
.	.	.	.	8g#	.
IIIb	8BB-	8F#	8f#	8a	4dd
V7b/-VII	8CC	8G#	8e	8b	.
-VII	8FF	8A	4e	8a	4cc#
viio7	8FF#	8A#	.	8g	.
i	4GG	8B	8d	4f#	4b
.	.	8A	8c#	.	.
=2	=2	=2	=2	=2	=2
VI	8EE-	8Gy	16B	8b	4dd
.	.	.	16c#	.	.
III	8BB-	8F#	4d	8a	.
iv7	8CC	8E	.	8g	4ee
-VII	8FF	8A	8c#	8a	.
III;	4BB-;	4D;	4d;	4a;	4ff#;
III	4BB-	4D	8d	4a	4ff#
.	.	.	8e	.	.
=3	=3	=3	=3	=3	=3
IIIb	4BB-	8d	8f#	4a	4ff#
.	.	8c#	8e	.	.
i	4GG	4B	4d	4b	8ff#
.	.	.	.	.	8gg
-VII	4FF	4A	4e	4cc#	8aa
.	.	.	.	.	8gg
i	4GG	8B	8d	[4dd	4ff#
.	.	8A	8f#	.	.
=4	=4	=4	=4	=4	=4
ivb	4CC	4G	4b	8dd]	4ee
.	.	.	.	16cc#	.
.	.	.	.	16b	.
V7/III	4FF	4A	8a	4cc#	4ee
.	.	.	8g	.	.
III;	4BB-;	4D;	4f#;	4a;	4dd;
i	4GG	8B	4f#	4b	4dd
.	.	8A	.	.	.
=5	=5	=5	=5	=5	=5
VI	4EE-	8G	4g	8b	4dd
.	.	8F#	.	8cc#	.
III	4BB-	8E	4a	4dd	4ff#
.	.	8D	.	.	.
-VII	2FF	4.A	4a	8dd	4ee
.	.	.	.	16cc#	.
.	.	.	.	16b	.
.	.	.	4e	4a	4cc#
.	.	8G	.	.	.
=6	=6	=6	=6	=6	=6
III	4BB-	8F#	4.d	4a	4dd
.	.	8D	.	.	.
-VII	4FF	4A	.	4a	4ee
.	.	.	8c#	.	.
III;	4BB-;	4D;	4d;	4a;	4ff#;
III	4BB-	4D	4d	4a	4ff#
=7	=7	=7	=7	=7	=7
III	4BB-	8D	4d	4a	4ff#
.	.	8E	.	.	.
III	4BB-	8F#	[4d	4a	4ff#
.	.	8G	.	.	.
-VII	4FF	4A	8d]	8.a	4ee
.	.	.	8c#	.	.
.	.	.	.	16g	.
V7	4DD	8A#	[4c#	[4f#	4ee
.	.	8F#	.	.	.
=8	=8	=8	=8	=8	=8
i	4GG	4B	8c#]	4f#]	4.dd
.	.	.	8B	.	.
vii7o/V	4CC#	4E#	8B	4g#	.
.	.	.	16c#	.	16cc#
.	.	.	16d	.	16b
v;	4DD;	4F#;	4c#;	4f#;	4a;
III	4BB-	8D	8d	4f#	4a
.	.	8C#	8e	.	.
=9	=9	=9	=9	=9	=9
i	4GG	4BB	8f#	8b	8dd
.	.	.	8e	8cc#	8ee
i	4GG	8B	8d	4dd	4ff#
.	.	8A	8c#	.	.
V7b/-VII	4CC	4G#	4B	4dd	4ee
V	4DD	4A#	4f#	4cc#	4ff#
=10	=10	=10	=10	=10	=10
i	8GG	8B	8f#	8cc#	4dd
V7/-VII	8CC	8E	8g	4b	.
V	4DD	4F#	8c#	.	4cc#
.	.	.	8f#	8a#	.
i;	4GG;	4BB;	4d;	4f#;	4b;
==	==	==	==	==	==
*-	*-	*-	*-	*-	*-
!!chor2scor: -l 2 -s 0.6 -o %b.pmx
!!!YEC: Copyright 2003 by Craig Stuart Sapp
!!!SMA: 371 Bach Chorales, edited by Ludwig Erk, C.F. Peters
!!!PDT: 1850, 1865
!!!ONB: Harmony and Root analysis done manually by Craig Sapp
